svg/u1f3dd.svg

<svg viewBox="0 0 128 128" xmlns="http://www.w3.org/2000/svg">
  <path d="M13.8,101.95c-1.95,12.37,16.51,22.5,52.26,22.5s48.99-13.25,48.26-21.41 c-0.73-8.18-15.6-21.23-52.98-19.96C23.97,84.35,14.89,95.06,13.8,101.95z" fill="#179CF5"/>
  <path d="M26.68,96.9c0.35,0.7,3.96,1.18,5.69,2.85c3.05,2.94,3.39,5.12,7.27,6.3 c3.87,1.17,6.99-0.81,11.56-0.14c4.71,0.69,6.71,3.6,11.62,3.87c5.63,0.32,5.66-3.61,12-4.08c6.34-0.47,7.21,1.68,12.33,0.23 c5.04-1.43,5.52-4.34,8.22-6.34s4.59-2.48,4.59-2.48s-7.65-16.87-30.53-17.95C44.64,78,26.68,96.9,26.68,96.9z" fill="#F6C973"/>
  <path d="M40.24,94.34c0,0,5.3,0.3,10.98-0.95s10.92-3.21,11.54-2.02c0.56,1.07-4.81,5.19-4.81,5.19 s2.5,1.81,8.05,1.22s9.58-2.71,11.56-3.96s5.15-3.18,9.38-4.24c4.23-1.06,6.7-0.69,6.7-0.69s-5.16-5.42-10.27-6.76 c-11.09-2.91-14.11-1.99-21.22,0.09C50.76,85.55,40.24,94.34,40.24,94.34z" fill="#EDA052"/>
  <g>
    <path d="M71.58,37.18l-7.22,4.83c0,0,5.74,6.67,7.4,15.87c1.07,5.93,1.91,11.21,1.21,16.24 c-0.29,2.05-2.27,6.19-2.84,7.58c-0.57,1.39-1.39,4.67,1.15,5.33s10.82,0.9,12.04,0.74c1.23-0.16,2.68-1.06,2.02-4.03 c-0.41-1.85-1.11-7.61-1.52-11.54c-0.41-3.93-0.66-11.5-4.08-20.79C76.41,42.34,71.58,37.18,71.58,37.18z" fill="#DC8124"/>
    <path d="M78.22,77.07c3.73,0.21,6.1-0.5,6.1-0.5l0.51,3.78c0,0-2.28,0.64-6.58,0.38 c-3.75-0.23-7.14-1.26-7.14-1.26l1.4-3.57C72.5,75.89,74.46,76.85,78.22,77.07z" fill="#C0711F"/>
    <path d="M73.07,66.82c0,0,0.07,1.05,0.11,1.72c0.03,0.67,0.05,1.7,0.05,1.7s2.82,0.33,5.05,0.24 c3.65-0.15,5.29-1.02,5.29-1.02s-0.07-0.81-0.17-1.77c-0.1-0.96-0.21-1.76-0.21-1.76s-1.79,0.88-5.54,1.13 C74.95,67.22,73.07,66.82,73.07,66.82z" fill="#C0711F"/>
    <path d="M71.63,57.25c0,0,1.71,0.35,4.9-0.34c3.1-0.67,4.43-1.85,4.43-1.85s0.29,0.91,0.46,1.6 c0.16,0.65,0.41,1.6,0.41,1.6s-1.25,1.23-4.65,1.9c-3.33,0.66-4.99,0.21-4.99,0.21s-0.16-0.89-0.27-1.55 C71.8,58.05,71.63,57.25,71.63,57.25z" fill="#C0711F"/>
    <path d="M69.88,51.37c0,0,1.58,0.11,4.65-1.05c2.68-1.01,3.83-2.36,3.83-2.36l-3.77-8.28l-9.04,3.28 L69.88,51.37z" fill="#A2672B"/>
    <path d="M70.39,41.08l15.24,5.75c0,0,0.71-2.02,1.06-3.68c0.23-1.1,0.44-3.02,0.91-2.99 c0.78,0.06,1.25,1.33,1.28,3.13c0.03,1.55-0.38,4.27-0.38,4.27l3.24,0.99c0,0,0.73-1.52,1.2-3.45c0.49-2.02,0.18-3.27,0.69-3.27 c0.87,0,1.51,1.62,1.43,4.1c-0.06,1.94-0.5,3.54-0.4,3.61c0.16,0.13,1.92,0.42,3.35,0.82c1.43,0.4,2.29,0.51,2.29,0.51 s2.32-11.02-4.85-15.78c-8.26-5.48-18.6-1.32-18.6-1.32l6.69-5.6c0,0-0.37-1.17-1.45-2.89c-0.6-0.96-1.61-2.05-1.85-2.73 c-0.17-0.48,1.28-0.64,3.21,0.52c1.54,0.93,3.68,2.8,3.72,2.83l1.74-1.27c0,0-0.12-1.45-0.8-2.69c-0.57-1.05-1.21-2.15-0.96-2.29 c0.51-0.29,2,0.1,3.01,1.08c0.87,0.85,1.49,2.13,1.49,2.13l5.2-3.32c0,0-3.6-5.65-11.42-5.37c-7.82,0.29-11.21,4.55-12.52,6.04 c-1.31,1.48-3.39,4.88-3.39,4.88l0.74-9.1c0,0-0.47-0.62-1.76-1.02c-1.28-0.4-2.43-0.13-2.45-0.3c-0.09-0.62,0.98-1.69,2.74-1.89 c1.03-0.12,1.99,0.04,1.99,0.04l0.84-8.77c0,0-9.55,0.19-12.58,8.8c-2.6,7.4,2.21,14.19,1.33,14.85 c-0.75,0.56-6.95-6.24-16.18-4.06c-10.13,2.39-12.9,13.08-12.32,13.08c1.55,0,6.27,0.22,6.55,0c0.14-0.11,0.56-1.42,1.48-2.83 c0.92-1.41,3.29-3.47,4.22-3.08c0.48,0.2-0.18,1.05-0.8,2.57C42.7,34.95,42.11,37,42.11,37l4.34-0.04c0,0,1.48-5.01,3.25-5.38 c0.76-0.16,0.07,1.24-0.12,2.49c-0.19,1.29-0.08,3.01-0.08,3.01l6.78,0.4c0,0-8.51,0.33-14.18,5.5c-5.87,5.35-6.5,10.79-6.05,15.51 c0.32,3.36,1,5.69,1.32,6.05c0.25,0.29,4.51-4.53,4.68-4.93c0.17-0.4-0.29-2.78-0.29-5.06s0.51-3.43,0.97-3.48 c0.46-0.06,0.34,1.6,0.69,3.03c0.36,1.49,0.91,2.74,1.14,2.85c0.23,0.11,2.77-3.2,2.77-3.2s-0.28-1.63-0.43-2.93 c-0.15-1.31,0.14-2.84,0.51-3.1c0.41-0.29,0.6,1.33,1.08,2.61c0.39,1.02,0.71,1.58,0.92,1.85l4.51-4.26c0,0-3.46,6.29-2.93,12.75 c0.59,7.23,5.02,9.14,5.3,9.09c0.29-0.06,3.52-7.1,3.52-7.1s-1.01-1.24-1.89-2.89c-1.11-2.08-1.05-3.95-0.64-4.21 c0.58-0.37,1.43,1.94,2.28,2.97c0.86,1.03,1.43,1.45,1.61,1.45s2.53-4.86,2.53-4.86s-0.7-0.81-1.25-1.65 c-0.46-0.71-0.87-1.94-0.48-2.67c0.42-0.39,0.84,0.62,1.49,1.15c0.64,0.53,1.24,1.08,1.24,1.08L70.39,41.08z" fill="#728137"/>
    <path d="M71.59,44.78c0.33-0.22,0.98-4.63,1.3-6.83c0.28-1.99,0.98-4.95-0.53-5.25 c-1.04-0.2-1.47,1.27-1.8,2.84c-0.3,1.4-0.74,3.31-0.74,3.31s-1.34-2.57-2.24-4.14c-0.65-1.13-2.06-3.52-3.18-2.81 c-1.29,0.82,0.11,3.46,0.9,4.91c0.79,1.45,1.68,3.15,1.68,3.15s-2.37-0.81-3.75-1.24c-1.51-0.47-3.54-0.88-3.82-0.07 c-0.49,1.42,1.38,2.13,5,3.61C68.01,43.74,71.04,45.14,71.59,44.78z" fill="#BDCF47"/>
  </g>
  <path d="M61.19,76.63c-2.49,0.31-4.37,2.4-3.81,5.64s3.89,3.73,5.75,3.42c2.24-0.38,4.64-2.89,3.07-6.47 C65.15,76.81,62.72,76.44,61.19,76.63z" fill="#A2672B"/>
  <path d="M17.55,100.12c-0.76-0.6-2.57,2.35,0.07,5.7c0.88,1.12,1.58,2.79,3.23,3.96 c1.54,1.09,2.66,1.14,4.85,2.76c1.08,0.8,3.28,1.67,3.86,1.58c1.29-0.19,1.52-0.33,1.43-0.68c-0.14-0.51-1.85-1.12-3.17-2.29 c-1.41-1.25-2-3.39-3.54-4.56c-1.87-1.43-2.75-0.83-5.07-3.28C18.13,102.18,17.65,100.2,17.55,100.12z" fill="#0FCAFF"/>
  <path d="M98.61,113.8c0.33,0.61,5.05-2.66,7.12-3.76c2.07-1.09,5.26-1.41,6.13-5.18 c0.56-2.45-1.28-4.86-1.82-4.8c-0.55,0.06-0.82,2.35-2.01,3.89c-1.64,2.13-3.77,2.49-5.71,4.31 C100.77,109.72,98.18,113.01,98.61,113.8z" fill="#0FCAFF"/>
  <path d="M24.53,93.38c0.59,0.74-1.58,2.37-1.22,3.71c0.85,2.49,2.19,1.82,5.53,4.44 c3.22,2.51,2.8,3.83,5.29,5.83c2.01,1.62,4.74,2.92,8.81,2.61s5.19-0.55,8.11-0.19c4.93,0.62,4.72,2.56,9.88,3.77 c2.33,0.55,4.62-0.18,6.87-1.52c2.03-1.21,4.74-2.67,8.69-2.73c3.95-0.06,8.99,1.23,13.35-0.49c3.56-1.41,4.4-3.64,7.01-6.07 c2.61-2.43,5.94-2.66,6.56-4.74c0.73-2.43-2.37-3.77-2.86-4.31c-0.49-0.55-0.43-1.52,0.67-1.46s6.5,2.25,6.14,6.32 c-0.28,3.11-2.92,4.19-4.38,4.92c-0.92,0.46-3.1,1.52-5.41,4.44c-2.31,2.92-3.44,4.65-6.56,5.65c-3.52,1.12-7.54,1.03-12.15,0.79 c-3.76-0.2-6.96,0.71-9.54,2.01c-2.67,1.34-5.85,2.1-8.63,1.64c-4.44-0.73-6.02-2.98-10.21-3.71c-4.01-0.97-7.23,1.46-13.73-0.67 c-5.02-1.64-6.44-4.68-7.78-6.2s-2.31-2.98-5.47-4.38c-3.16-1.4-3.77-3.46-3.71-4.8c0.11-2.31,1.82-3.59,2.49-4.19 C22.95,93.45,24.29,93.08,24.53,93.38z" fill="#76F8FF"/>
</svg>

<svg viewBox="0 0 128 128" xmlns="http://www.w3.org/2000/svg">
  <defs/>
  <path d="M13.8,101.95 C11.85,114.32 30.31,124.45 66.06,124.45 C101.81,124.45 115.05,111.2 114.32,103.04 C113.59,94.86 98.72,81.81 61.34,83.08 C23.97,84.35 14.89,95.06 13.8,101.95 Z" fill="#179CF5"/>
  <path d="M26.68,96.9 C27.03,97.6 30.64,98.08 32.37,99.75 C35.42,102.69 35.76,104.87 39.64,106.05 C43.51,107.22 46.63,105.24 51.2,105.91 C55.91,106.6 57.91,109.51 62.82,109.78 C68.45,110.1 68.48,106.17 74.82,105.7 C81.16,105.23 82.03,107.38 87.15,105.93 C92.19,104.5 92.67,101.59 95.37,99.59 C98.07,97.59 99.96,97.11 99.96,97.11 C99.96,97.11 92.31,80.24 69.43,79.16 C44.64,78 26.68,96.9 26.68,96.9 Z" fill="#F6C973"/>
  <path d="M40.24,94.34 C40.24,94.34 45.54,94.64 51.22,93.39 C56.9,92.14 62.14,90.18 62.76,91.37 C63.32,92.44 57.95,96.56 57.95,96.56 C57.95,96.56 60.45,98.37 66,97.78 C71.55,97.19 75.58,95.07 77.56,93.82 C79.54,92.57 82.71,90.64 86.94,89.58 C91.17,88.52 93.64,88.89 93.64,88.89 C93.64,88.89 88.48,83.47 83.37,82.13 C72.28,79.22 69.26,80.14 62.15,82.22 C50.76,85.55 40.24,94.34 40.24,94.34 Z" fill="#EDA052"/>
  <path d="M71.58,37.18 L64.36,42.01 C64.36,42.01 70.1,48.68 71.76,57.88 C72.83,63.81 73.67,69.09 72.97,74.12 C72.68,76.17 70.7,80.31 70.13,81.7 C69.56,83.09 68.74,86.37 71.28,87.03 C73.82,87.69 82.1,87.93 83.32,87.77 C84.55,87.61 86,86.71 85.34,83.74 C84.93,81.89 84.23,76.13 83.82,72.2 C83.41,68.27 83.16,60.7 79.74,51.41 C76.41,42.34 71.58,37.18 71.58,37.18 Z" fill="#DC8124"/>
  <path d="M78.22,77.07 C81.95,77.28 84.32,76.57 84.32,76.57 L84.83,80.35 C84.83,80.35 82.55,80.99 78.25,80.73 C74.5,80.5 71.11,79.47 71.11,79.47 L72.51,75.9 C72.5,75.89 74.46,76.85 78.22,77.07 Z" fill="#C0711F"/>
  <path d="M73.07,66.82 C73.07,66.82 73.14,67.87 73.18,68.54 C73.21,69.21 73.23,70.24 73.23,70.24 C73.23,70.24 76.05,70.57 78.28,70.48 C81.93,70.33 83.57,69.46 83.57,69.46 C83.57,69.46 83.5,68.65 83.4,67.69 C83.3,66.73 83.19,65.93 83.19,65.93 C83.19,65.93 81.4,66.81 77.65,67.06 C74.95,67.22 73.07,66.82 73.07,66.82 Z" fill="#C0711F"/>
  <path d="M71.63,57.25 C71.63,57.25 73.34,57.6 76.53,56.91 C79.63,56.24 80.96,55.06 80.96,55.06 C80.96,55.06 81.25,55.97 81.42,56.66 C81.58,57.31 81.83,58.26 81.83,58.26 C81.83,58.26 80.58,59.49 77.18,60.16 C73.85,60.82 72.19,60.37 72.19,60.37 C72.19,60.37 72.03,59.48 71.92,58.82 C71.8,58.05 71.63,57.25 71.63,57.25 Z" fill="#C0711F"/>
  <path d="M69.88,51.37 C69.88,51.37 71.46,51.48 74.53,50.32 C77.21,49.31 78.36,47.96 78.36,47.96 L74.59,39.68 L65.55,42.96 L69.88,51.37 Z" fill="#A2672B"/>
  <path d="M70.39,41.08 L85.63,46.83 C85.63,46.83 86.34,44.81 86.69,43.15 C86.92,42.05 87.13,40.13 87.6,40.16 C88.38,40.22 88.85,41.49 88.88,43.29 C88.91,44.84 88.5,47.56 88.5,47.56 L91.74,48.55 C91.74,48.55 92.47,47.03 92.94,45.1 C93.43,43.08 93.12,41.83 93.63,41.83 C94.5,41.83 95.14,43.45 95.06,45.93 C95,47.87 94.56,49.47 94.66,49.54 C94.82,49.67 96.58,49.96 98.01,50.36 C99.44,50.76 100.3,50.87 100.3,50.87 C100.3,50.87 102.62,39.85 95.45,35.09 C87.19,29.61 76.85,33.77 76.85,33.77 L83.54,28.17 C83.54,28.17 83.17,27 82.09,25.28 C81.49,24.32 80.48,23.23 80.24,22.55 C80.07,22.07 81.52,21.91 83.45,23.07 C84.99,24 87.13,25.87 87.17,25.9 L88.91,24.63 C88.91,24.63 88.79,23.18 88.11,21.94 C87.54,20.89 86.9,19.79 87.15,19.65 C87.66,19.36 89.15,19.75 90.16,20.73 C91.03,21.58 91.65,22.86 91.65,22.86 L96.85,19.54 C96.85,19.54 93.25,13.89 85.43,14.17 C77.61,14.46 74.22,18.72 72.91,20.21 C71.6,21.69 69.52,25.09 69.52,25.09 L70.26,15.99 C70.26,15.99 69.79,15.37 68.5,14.97 C67.22,14.57 66.07,14.84 66.05,14.67 C65.96,14.05 67.03,12.98 68.79,12.78 C69.82,12.66 70.78,12.82 70.78,12.82 L71.62,4.05 C71.62,4.05 62.07,4.24 59.04,12.85 C56.44,20.25 61.25,27.04 60.37,27.7 C59.62,28.26 53.42,21.46 44.19,23.64 C34.06,26.03 31.29,36.72 31.87,36.72 C33.42,36.72 38.14,36.94 38.42,36.72 C38.56,36.61 38.98,35.3 39.9,33.89 C40.82,32.48 43.19,30.42 44.12,30.81 C44.6,31.01 43.94,31.86 43.32,33.38 C42.7,34.95 42.11,37 42.11,37 L46.45,36.96 C46.45,36.96 47.93,31.95 49.7,31.58 C50.46,31.42 49.77,32.82 49.58,34.07 C49.39,35.36 49.5,37.08 49.5,37.08 L56.28,37.48 C56.28,37.48 47.77,37.81 42.1,42.98 C36.23,48.33 35.6,53.77 36.05,58.49 C36.37,61.85 37.05,64.18 37.37,64.54 C37.62,64.83 41.88,60.01 42.05,59.61 C42.22,59.21 41.76,56.83 41.76,54.55 C41.76,52.27 42.27,51.12 42.73,51.07 C43.19,51.01 43.07,52.67 43.42,54.1 C43.78,55.59 44.33,56.84 44.56,56.95 C44.79,57.06 47.33,53.75 47.33,53.75 C47.33,53.75 47.05,52.12 46.9,50.82 C46.75,49.51 47.04,47.98 47.41,47.72 C47.82,47.43 48.01,49.05 48.49,50.33 C48.88,51.35 49.2,51.91 49.41,52.18 L53.92,47.92 C53.92,47.92 50.46,54.21 50.99,60.67 C51.58,67.9 56.01,69.81 56.29,69.76 C56.58,69.7 59.81,62.66 59.81,62.66 C59.81,62.66 58.8,61.42 57.92,59.77 C56.81,57.69 56.87,55.82 57.28,55.56 C57.86,55.19 58.71,57.5 59.56,58.53 C60.42,59.56 60.99,59.98 61.17,59.98 C61.35,59.98 63.7,55.12 63.7,55.12 C63.7,55.12 63,54.31 62.45,53.47 C61.99,52.76 61.58,51.53 61.97,50.8 C62.39,50.41 62.81,51.42 63.46,51.95 C64.1,52.48 64.7,53.03 64.7,53.03 L70.39,41.08 Z" fill="#728137"/>
  <path d="M71.59,44.78 C71.92,44.56 72.57,40.15 72.89,37.95 C73.17,35.96 73.87,33 72.36,32.7 C71.32,32.5 70.89,33.97 70.56,35.54 C70.26,36.94 69.82,38.85 69.82,38.85 C69.82,38.85 68.48,36.28 67.58,34.71 C66.93,33.58 65.52,31.19 64.4,31.9 C63.11,32.72 64.51,35.36 65.3,36.81 C66.09,38.26 66.98,39.96 66.98,39.96 C66.98,39.96 64.61,39.15 63.23,38.72 C61.72,38.25 59.69,37.84 59.41,38.65 C58.92,40.07 60.79,40.78 64.41,42.26 C68.01,43.74 71.04,45.14 71.59,44.78 Z" fill="#BDCF47"/>
  <path d="M61.19,76.63 C58.7,76.94 56.82,79.03 57.38,82.27 C57.94,85.51 61.27,86 63.13,85.69 C65.37,85.31 67.77,82.8 66.2,79.22 C65.15,76.81 62.72,76.44 61.19,76.63 Z" fill="#A2672B"/>
  <path d="M17.55,100.12 C16.79,99.52 14.98,102.47 17.62,105.82 C18.5,106.94 19.2,108.61 20.85,109.78 C22.39,110.87 23.51,110.92 25.7,112.54 C26.78,113.34 28.98,114.21 29.56,114.12 C30.85,113.93 31.08,113.79 30.99,113.44 C30.85,112.93 29.14,112.32 27.82,111.15 C26.41,109.9 25.82,107.76 24.28,106.59 C22.41,105.16 21.53,105.76 19.21,103.31 C18.13,102.18 17.65,100.2 17.55,100.12 Z" fill="#0FCAFF"/>
  <path d="M98.61,113.8 C98.94,114.41 103.66,111.14 105.73,110.04 C107.8,108.95 110.99,108.63 111.86,104.86 C112.42,102.41 110.58,100 110.04,100.06 C109.49,100.12 109.22,102.41 108.03,103.95 C106.39,106.08 104.26,106.44 102.32,108.26 C100.77,109.72 98.18,113.01 98.61,113.8 Z" fill="#0FCAFF"/>
  <path d="M24.53,93.38 C25.12,94.12 22.95,95.75 23.31,97.09 C24.16,99.58 25.5,98.91 28.84,101.53 C32.06,104.04 31.64,105.36 34.13,107.36 C36.14,108.98 38.87,110.28 42.94,109.97 C47.01,109.66 48.13,109.42 51.05,109.78 C55.98,110.4 55.77,112.34 60.93,113.55 C63.26,114.1 65.55,113.37 67.8,112.03 C69.83,110.82 72.54,109.36 76.49,109.3 C80.44,109.24 85.48,110.53 89.84,108.81 C93.4,107.4 94.24,105.17 96.85,102.74 C99.46,100.31 102.79,100.08 103.41,98 C104.14,95.57 101.04,94.23 100.55,93.69 C100.06,93.14 100.12,92.17 101.22,92.23 C102.32,92.29 107.72,94.48 107.36,98.55 C107.08,101.66 104.44,102.74 102.98,103.47 C102.06,103.93 99.88,104.99 97.57,107.91 C95.26,110.83 94.13,112.56 91.01,113.56 C87.49,114.68 83.47,114.59 78.86,114.35 C75.1,114.15 71.9,115.06 69.32,116.36 C66.65,117.7 63.47,118.46 60.69,118 C56.25,117.27 54.67,115.02 50.48,114.29 C46.47,113.32 43.25,115.75 36.75,113.62 C31.73,111.98 30.31,108.94 28.97,107.42 C27.63,105.9 26.66,104.44 23.5,103.04 C20.34,101.64 19.73,99.58 19.79,98.24 C19.9,95.93 21.61,94.65 22.28,94.05 C22.95,93.45 24.29,93.08 24.53,93.38 Z" fill="#76F8FF"/>
</svg>
